X: 37948
T: Spancil Hill
R: waltz
M: 3/4
K: Edorian
|:A2|"Em" B4 E2|B4 B2|"D" y (A4 F2)|D4 E2|y (F2 A2) B2|(F2 E2) D2|"Em" E6-|E4 B2|
"Em" B4 e2|e4 f2|(e4 d2)|B4 c2|"G" d4 e2|(d2 c2) B2|"D" A6-|A4 A2|
"Em" B4 e2|e4 f2|(e4 d2)|B4 c2|"G" d4 e2|(d2 c2) B2|"D" A6|(d4 c2)|
"Em" B4 E2|B4 B2|"D" A4 F2|D4 E2|(F2 A2) B2|(F2 E2) D2|"Em" E6-|E4:|

